img/map-markers/eco.svg

<svg width="150" height="150" viewBox="0 0 150 150" fill="none" xmlns="http://www.w3.org/2000/svg">
<g filter="url(#filter0_d_2_123)">
<circle cx="75" cy="65" r="25" fill="white"/>
</g>
<circle cx="75" cy="65" r="25" fill="white"/>
<circle cx="75.236" cy="64.7641" r="21.934" fill="#FC6733"/>
<path d="M64.5348 65.1697C64.2828 65.1545 64.0692 65.3417 64.0449 65.5899C63.7939 68.144 64.605 70.7262 66.2132 72.5028C67.7708 74.2206 69.9661 75.13 72.5625 75.13C72.8904 75.13 73.2275 75.1149 73.575 75.0859C73.8007 75.0663 73.9795 74.8883 74.0011 74.6633C74.2362 72.236 73.6096 70.081 72.1889 68.4348C70.519 66.4976 67.8008 65.3376 64.535 65.1695L64.5348 65.1697Z" fill="white"/>
<path d="M85.9549 65.5899C85.9306 65.3411 85.7124 65.1546 85.4657 65.1695C82.2009 65.3379 79.482 66.4976 77.8118 68.4326C76.3909 70.081 75.7643 72.2362 75.9996 74.6628C76.0201 74.8878 76.1999 75.0657 76.4257 75.0836C76.7732 75.1125 77.1105 75.1277 77.4382 75.1277C80.0335 75.1277 82.2309 74.2201 83.7871 72.5002C85.3967 70.7292 86.2065 68.1442 85.9549 65.5901L85.9549 65.5899Z" fill="white"/>
<path d="M81.2165 60.344C81.2165 56.7877 78.324 53.8955 74.7692 53.8955C71.2138 53.8955 68.3207 56.7878 68.3207 60.344C68.3205 63.9002 71.2128 66.7933 74.7692 66.7933C78.3242 66.7943 81.2165 63.9001 81.2165 60.344Z" fill="white"/>
<defs>
<filter id="filter0_d_2_123" x="0" y="0" width="150" height="150" filterUnits="userSpaceOnUse" color-interpolation-filters="sRGB">
<feFlood flood-opacity="0" result="BackgroundImageFix"/>
<feColorMatrix in="SourceAlpha" type="matrix" values="0 0 0 0 0 0 0 0 0 0 0 0 0 0 0 0 0 0 127 0" result="hardAlpha"/>
<feOffset dy="10"/>
<feGaussianBlur stdDeviation="25"/>
<feColorMatrix type="matrix" values="0 0 0 0 0 0 0 0 0 0 0 0 0 0 0 0 0 0 0.1 0"/>
<feBlend mode="normal" in2="BackgroundImageFix" result="effect1_dropShadow_2_123"/>
<feBlend mode="normal" in="SourceGraphic" in2="effect1_dropShadow_2_123" result="shape"/>
</filter>
</defs>
</svg>

<svg width="150" height="150" viewBox="0 0 150 150" fill="none" xmlns="http://www.w3.org/2000/svg"><circle cx="75" cy="65" r="25" fill="#fff" filter="url(#a)"/><circle cx="75" cy="65" r="25" fill="#fff"/><circle cx="75.236" cy="64.764" r="21.934" fill="#FC6733"/><path d="M64.535 65.17a.464.464 0 0 0-.49.42c-.251 2.554.56 5.136 2.168 6.913 1.558 1.718 3.753 2.627 6.35 2.627.327 0 .665-.015 1.012-.044a.469.469 0 0 0 .426-.423c.235-2.427-.391-4.582-1.812-6.228-1.67-1.937-4.388-3.097-7.654-3.266zm21.42.42a.467.467 0 0 0-.49-.42c-3.264.168-5.983 1.328-7.653 3.263-1.421 1.648-2.048 3.803-1.812 6.23.02.225.2.403.426.42.347.03.684.045 1.012.045 2.596 0 4.793-.908 6.35-2.628 1.609-1.77 2.419-4.356 2.167-6.91zm-4.739-5.246a6.455 6.455 0 0 0-6.447-6.449 6.456 6.456 0 0 0-6.448 6.449 6.456 6.456 0 0 0 6.448 6.45c3.555 0 6.447-2.894 6.447-6.45z" fill="#fff"/><defs><filter id="a" x="0" y="0" width="150" height="150" filterUnits="userSpaceOnUse" color-interpolation-filters="sRGB"><feFlood flood-opacity="0" result="BackgroundImageFix"/><feColorMatrix in="SourceAlpha" values="0 0 0 0 0 0 0 0 0 0 0 0 0 0 0 0 0 0 127 0" result="hardAlpha"/><feOffset dy="10"/><feGaussianBlur stdDeviation="25"/><feColorMatrix values="0 0 0 0 0 0 0 0 0 0 0 0 0 0 0 0 0 0 0.1 0"/><feBlend in2="BackgroundImageFix" result="effect1_dropShadow_2_123"/><feBlend in="SourceGraphic" in2="effect1_dropShadow_2_123" result="shape"/></filter></defs></svg>
